data/logos/metalend.svg

<svg version="1.1" id="Layer_1" xmlns="http://www.w3.org/2000/svg" xmlns:xlink="http://www.w3.org/1999/xlink" x="0px" y="0px"
	 viewBox="0 0 893.6 177.9" style="enable-background:new 0 0 893.6 177.9;" xml:space="preserve">
<style type="text/css">
	.st0{fill:#FFFFFF;}
</style>
<g id="Layer_1_00000049215161001514824960000002323867249029543094_">
</g>
<g id="Layer_2_00000061455843099935530760000015870649722118948248_">
	<path class="st0" d="M89,0C39.8,0,0,39.8,0,89s39.8,89,89,89s89-39.8,89-89S138.1,0,89,0z M150.5,127.5h-26.8h-18.3V79.8h-0.6
		L86.1,127H74.4L55.8,79.5h-0.6v47.9H36.9V49.9h23.2l19.7,48h0.9l19.7-48h23.7v62.4h32.3L150.5,127.5z"/>
	<g>
		<path class="st0" d="M241.8,38.6h26l27.4,66.9h1.2l27.4-66.9h26v99.5h-20.4V73.3h-0.8l-25.8,64.3h-13.9L263,73.1h-0.8v65h-20.4
			L241.8,38.6L241.8,38.6z"/>
		<path class="st0" d="M401.6,139.6c-7.7,0-14.3-1.6-19.8-4.7c-5.5-3.1-9.8-7.6-12.8-13.3s-4.5-12.6-4.5-20.4
			c0-7.7,1.5-14.4,4.5-20.2s7.2-10.3,12.6-13.6c5.4-3.2,11.8-4.9,19.1-4.9c4.9,0,9.5,0.8,13.8,2.4s8,3.9,11.2,7.1
			c3.2,3.1,5.7,7.1,7.5,11.8c1.8,4.8,2.7,10.3,2.7,16.6v5.7h-63V93.2h43.6c0-3-0.7-5.6-1.9-7.9c-1.3-2.3-3.1-4.1-5.4-5.4
			c-2.3-1.3-4.9-2-8-2c-3.1,0-5.9,0.7-8.3,2.2c-2.4,1.4-4.3,3.4-5.7,5.8s-2.1,5.1-2.1,8v12.2c0,3.7,0.7,6.9,2.1,9.6
			c1.4,2.7,3.3,4.8,5.9,6.2s5.5,2.2,9,2.2c2.3,0,4.4-0.3,6.3-1s3.5-1.6,4.9-2.9s2.4-2.9,3.1-4.8l19.2,1.3c-1,4.6-3,8.6-6,12
			c-3,3.4-6.8,6.1-11.6,8C413.2,138.6,407.8,139.6,401.6,139.6z"/>
		<path class="st0" d="M487.8,63.4V79h-45V63.4H487.8z M453,45.6h20.7v69.6c0,1.9,0.3,3.4,0.9,4.4c0.6,1.1,1.4,1.8,2.5,2.2
			c1,0.4,2.3,0.6,3.7,0.6c1,0,1.9-0.1,2.9-0.3c1-0.2,1.7-0.3,2.2-0.4l3.3,15.4c-1,0.3-2.5,0.7-4.4,1.1c-1.9,0.4-4.2,0.7-6.8,0.8
			c-5,0.2-9.4-0.5-13.1-2s-6.7-3.9-8.7-7.1c-2.1-3.2-3.1-7.3-3.1-12.2L453,45.6L453,45.6z"/>
		<path class="st0" d="M522,139.5c-4.8,0-9-0.8-12.7-2.5c-3.7-1.7-6.7-4.1-8.8-7.4c-2.2-3.3-3.2-7.4-3.2-12.3
			c0-4.1,0.8-7.6,2.3-10.4c1.5-2.8,3.6-5.1,6.2-6.8c2.6-1.7,5.6-3,9-3.9s6.9-1.5,10.6-1.9c4.3-0.4,7.8-0.9,10.5-1.3
			c2.7-0.4,4.6-1,5.8-1.8c1.2-0.8,1.8-2,1.8-3.6v-0.3c0-3.1-1-5.5-2.9-7.1s-4.7-2.5-8.2-2.5c-3.7,0-6.7,0.8-8.9,2.4
			c-2.2,1.6-3.7,3.7-4.4,6.1l-19.2-1.6c1-4.5,2.9-8.5,5.7-11.8s6.5-5.9,11.1-7.7c4.5-1.8,9.8-2.7,15.7-2.7c4.2,0,8.1,0.5,11.9,1.5
			s7.2,2.5,10.2,4.5c3,2,5.3,4.7,7,7.9c1.7,3.2,2.6,7,2.6,11.4v50.3h-19.6v-10.4h-0.6c-1.2,2.3-2.8,4.4-4.8,6.2s-4.4,3.1-7.2,4.1
			C529,139,525.7,139.5,522,139.5z M527.9,125.2c3,0,5.7-0.6,8.1-1.8s4.2-2.9,5.5-4.9c1.3-2.1,2-4.4,2-7.1v-7.9
			c-0.7,0.4-1.5,0.8-2.7,1.1s-2.4,0.6-3.8,0.9c-1.4,0.3-2.8,0.5-4.2,0.7c-1.4,0.2-2.7,0.4-3.8,0.6c-2.4,0.4-4.5,0.9-6.4,1.7
			c-1.8,0.8-3.2,1.8-4.2,3.1c-1,1.3-1.5,2.9-1.5,4.9c0,2.8,1,5,3.1,6.4S524.8,125.2,527.9,125.2z"/>
		<path class="st0" d="M581.4,138.1V38.6h21v82.2h42.7l-6.8,17.4H581.4z"/>
		<path class="st0" d="M689.4,139.6c-7.7,0-14.3-1.6-19.8-4.7c-5.5-3.1-9.8-7.6-12.8-13.3s-4.5-12.6-4.5-20.4
			c0-7.7,1.5-14.4,4.5-20.2s7.2-10.3,12.6-13.6c5.4-3.2,11.8-4.9,19.1-4.9c4.9,0,9.5,0.8,13.8,2.4s8,3.9,11.2,7.1
			c3.2,3.1,5.7,7.1,7.5,11.8c1.8,4.8,2.7,10.3,2.7,16.6v5.7h-63V93.2h43.5c0-3-0.7-5.6-1.9-7.9c-1.3-2.3-3.1-4.1-5.4-5.4s-4.9-2-8-2
			c-3.1,0-5.9,0.7-8.3,2.2c-2.4,1.4-4.3,3.4-5.7,5.8s-2.1,5.1-2.1,8v12.2c0,3.7,0.7,6.9,2.1,9.6c1.4,2.7,3.3,4.8,5.9,6.2
			s5.5,2.2,9,2.2c2.3,0,4.4-0.3,6.3-1c1.9-0.6,3.5-1.6,4.9-2.9s2.4-2.9,3.1-4.8l19.2,1.3c-1,4.6-3,8.6-6,12c-3,3.4-6.8,6.1-11.6,8
			C701,138.6,695.5,139.6,689.4,139.6z"/>
		<path class="st0" d="M758.7,94.9v43.2H738V63.5h19.7v13.2h0.9c1.7-4.3,4.4-7.8,8.3-10.3s8.6-3.8,14.1-3.8c5.2,0,9.7,1.1,13.6,3.4
			c3.9,2.3,6.8,5.5,9,9.7s3.2,9.2,3.2,15v47.5h-20.7V94.2c0-4.6-1.1-8.1-3.5-10.7s-5.6-3.9-9.8-3.9c-2.8,0-5.2,0.6-7.4,1.8
			s-3.8,2.9-5,5.2C759.3,89,758.7,91.7,758.7,94.9z"/>
		<path class="st0" d="M851.1,139.3c-5.7,0-10.8-1.5-15.4-4.4s-8.2-7.3-10.9-13c-2.7-5.7-4-12.7-4-21.1c0-8.6,1.4-15.7,4.1-21.4
			s6.4-9.9,11-12.8s9.6-4.2,15.1-4.2c4.2,0,7.7,0.7,10.5,2.1c2.8,1.4,5.1,3.2,6.8,5.2s3,4.1,4,6.1h0.6V38.6h20.7v99.5h-20.4v-12
			h-0.9c-1,2.1-2.3,4.1-4.1,6.1c-1.8,2-4,3.7-6.8,5S855.2,139.3,851.1,139.3z M857.7,122.8c3.3,0,6.2-0.9,8.5-2.8s4.1-4.4,5.3-7.7
			s1.9-7.2,1.9-11.6s-0.6-8.3-1.8-11.6c-1.2-3.3-3-5.8-5.3-7.6c-2.3-1.8-5.2-2.7-8.5-2.7c-3.4,0-6.3,0.9-8.6,2.8
			c-2.3,1.9-4.1,4.4-5.3,7.7c-1.2,3.3-1.8,7.1-1.8,11.4c0,4.3,0.6,8.2,1.8,11.5s3,5.9,5.3,7.8S854.3,122.8,857.7,122.8z"/>
	</g>
</g>
</svg>

<svg viewBox="0 0 894 178" fill="none" xmlns="http://www.w3.org/2000/svg">
    <g clip-path="url(#clip0_149_2138)">
        <path
            d="M89 0C39.8 0 0 39.8 0 89C0 138.2 39.8 178 89 178C138.2 178 178 138.2 178 89C178 39.8 138.1 0 89 0ZM150.5 127.5H123.7H105.4V79.8H104.8L86.1 127H74.4L55.8 79.5H55.2V127.4H36.9V49.9H60.1L79.8 97.9H80.7L100.4 49.9H124.1V112.3H156.4L150.5 127.5Z"
            fill="white" />
        <path
            d="M241.8 38.6H267.8L295.2 105.5H296.4L323.8 38.6H349.8V138.1H329.4V73.3H328.6L302.8 137.6H288.9L263 73.1H262.2V138.1H241.8V38.6Z"
            fill="white" />
        <path
            d="M401.6 139.6C393.9 139.6 387.3 138 381.8 134.9C376.3 131.8 372 127.3 369 121.6C366 115.9 364.5 109 364.5 101.2C364.5 93.5 366 86.8 369 81C372 75.2 376.2 70.7 381.6 67.4C387 64.2 393.4 62.5 400.7 62.5C405.6 62.5 410.2 63.3 414.5 64.9C418.8 66.5 422.5 68.8 425.7 72C428.9 75.1 431.4 79.1 433.2 83.8C435 88.6 435.9 94.1 435.9 100.4V106.1H372.9V93.2H416.5C416.5 90.2 415.8 87.6 414.6 85.3C413.3 83 411.5 81.2 409.2 79.9C406.9 78.6 404.3 77.9 401.2 77.9C398.1 77.9 395.3 78.6 392.9 80.1C390.5 81.5 388.6 83.5 387.2 85.9C385.8 88.3 385.1 91 385.1 93.9V106.1C385.1 109.8 385.8 113 387.2 115.7C388.6 118.4 390.5 120.5 393.1 121.9C395.7 123.3 398.6 124.1 402.1 124.1C404.4 124.1 406.5 123.8 408.4 123.1C410.3 122.4 411.9 121.5 413.3 120.2C414.7 118.9 415.7 117.3 416.4 115.4L435.6 116.7C434.6 121.3 432.6 125.3 429.6 128.7C426.6 132.1 422.8 134.8 418 136.7C413.2 138.6 407.8 139.6 401.6 139.6Z"
            fill="white" />
        <path
            d="M487.8 63.4V79H442.8V63.4H487.8ZM453 45.6H473.7V115.2C473.7 117.1 474 118.6 474.6 119.6C475.2 120.7 476 121.4 477.1 121.8C478.1 122.2 479.4 122.4 480.8 122.4C481.8 122.4 482.7 122.3 483.7 122.1C484.7 121.9 485.4 121.8 485.9 121.7L489.2 137.1C488.2 137.4 486.7 137.8 484.8 138.2C482.9 138.6 480.6 138.9 478 139C473 139.2 468.6 138.5 464.9 137C461.2 135.5 458.2 133.1 456.2 129.9C454.1 126.7 453.1 122.6 453.1 117.7L453 45.6Z"
            fill="white" />
        <path
            d="M522 139.5C517.2 139.5 513 138.7 509.3 137C505.6 135.3 502.6 132.9 500.5 129.6C498.3 126.3 497.3 122.2 497.3 117.3C497.3 113.2 498.1 109.7 499.6 106.9C501.1 104.1 503.2 101.8 505.8 100.1C508.4 98.4 511.4 97.1 514.8 96.2C518.2 95.3 521.7 94.7 525.4 94.3C529.7 93.9 533.2 93.4 535.9 93C538.6 92.6 540.5 92 541.7 91.2C542.9 90.4 543.5 89.2 543.5 87.6V87.3C543.5 84.2 542.5 81.8 540.6 80.2C538.7 78.6 535.9 77.7 532.4 77.7C528.7 77.7 525.7 78.5 523.5 80.1C521.3 81.7 519.8 83.8 519.1 86.2L499.9 84.6C500.9 80.1 502.8 76.1 505.6 72.8C508.4 69.5 512.1 66.9 516.7 65.1C521.2 63.3 526.5 62.4 532.4 62.4C536.6 62.4 540.5 62.9 544.3 63.9C548.1 64.9 551.5 66.4 554.5 68.4C557.5 70.4 559.8 73.1 561.5 76.3C563.2 79.5 564.1 83.3 564.1 87.7V138H544.5V127.6H543.9C542.7 129.9 541.1 132 539.1 133.8C537.1 135.6 534.7 136.9 531.9 137.9C529 139 525.7 139.5 522 139.5ZM527.9 125.2C530.9 125.2 533.6 124.6 536 123.4C538.4 122.2 540.2 120.5 541.5 118.5C542.8 116.4 543.5 114.1 543.5 111.4V103.5C542.8 103.9 542 104.3 540.8 104.6C539.6 104.9 538.4 105.2 537 105.5C535.6 105.8 534.2 106 532.8 106.2C531.4 106.4 530.1 106.6 529 106.8C526.6 107.2 524.5 107.7 522.6 108.5C520.8 109.3 519.4 110.3 518.4 111.6C517.4 112.9 516.9 114.5 516.9 116.5C516.9 119.3 517.9 121.5 520 122.9C522.1 124.3 524.8 125.2 527.9 125.2Z"
            fill="white" />
        <path d="M581.4 138.1V38.6H602.4V120.8H645.1L638.3 138.2H581.4V138.1Z" fill="white" />
        <path
            d="M689.4 139.6C681.7 139.6 675.1 138 669.6 134.9C664.1 131.8 659.8 127.3 656.8 121.6C653.8 115.9 652.3 109 652.3 101.2C652.3 93.5 653.8 86.8 656.8 81C659.8 75.2 664 70.7 669.4 67.4C674.8 64.2 681.2 62.5 688.5 62.5C693.4 62.5 698 63.3 702.3 64.9C706.6 66.5 710.3 68.8 713.5 72C716.7 75.1 719.2 79.1 721 83.8C722.8 88.6 723.7 94.1 723.7 100.4V106.1H660.7V93.2H704.2C704.2 90.2 703.5 87.6 702.3 85.3C701 83 699.2 81.2 696.9 79.9C694.6 78.6 692 77.9 688.9 77.9C685.8 77.9 683 78.6 680.6 80.1C678.2 81.5 676.3 83.5 674.9 85.9C673.5 88.3 672.8 91 672.8 93.9V106.1C672.8 109.8 673.5 113 674.9 115.7C676.3 118.4 678.2 120.5 680.8 121.9C683.4 123.3 686.3 124.1 689.8 124.1C692.1 124.1 694.2 123.8 696.1 123.1C698 122.5 699.6 121.5 701 120.2C702.4 118.9 703.4 117.3 704.1 115.4L723.3 116.7C722.3 121.3 720.3 125.3 717.3 128.7C714.3 132.1 710.5 134.8 705.7 136.7C701 138.6 695.5 139.6 689.4 139.6Z"
            fill="white" />
        <path
            d="M758.7 94.9V138.1H738V63.5H757.7V76.7H758.6C760.3 72.4 763 68.9 766.9 66.4C770.8 63.9 775.5 62.6 781 62.6C786.2 62.6 790.7 63.7 794.6 66C798.5 68.3 801.4 71.5 803.6 75.7C805.8 79.9 806.8 84.9 806.8 90.7V138.2H786.1V94.2C786.1 89.6 785 86.1 782.6 83.5C780.2 80.9 777 79.6 772.8 79.6C770 79.6 767.6 80.2 765.4 81.4C763.2 82.6 761.6 84.3 760.4 86.6C759.3 89 758.7 91.7 758.7 94.9Z"
            fill="white" />
        <path
            d="M851.1 139.3C845.4 139.3 840.3 137.8 835.7 134.9C831.1 132 827.5 127.6 824.8 121.9C822.1 116.2 820.8 109.2 820.8 100.8C820.8 92.2 822.2 85.1 824.9 79.4C827.6 73.7 831.3 69.5 835.9 66.6C840.5 63.7 845.5 62.4 851 62.4C855.2 62.4 858.7 63.1 861.5 64.5C864.3 65.9 866.6 67.7 868.3 69.7C870 71.7 871.3 73.8 872.3 75.8H872.9V38.6H893.6V138.1H873.2V126.1H872.3C871.3 128.2 870 130.2 868.2 132.2C866.4 134.2 864.2 135.9 861.4 137.2C858.6 138.5 855.2 139.3 851.1 139.3ZM857.7 122.8C861 122.8 863.9 121.9 866.2 120C868.5 118.1 870.3 115.6 871.5 112.3C872.7 109 873.4 105.1 873.4 100.7C873.4 96.3 872.8 92.4 871.6 89.1C870.4 85.8 868.6 83.3 866.3 81.5C864 79.7 861.1 78.8 857.8 78.8C854.4 78.8 851.5 79.7 849.2 81.6C846.9 83.5 845.1 86 843.9 89.3C842.7 92.6 842.1 96.4 842.1 100.7C842.1 105 842.7 108.9 843.9 112.2C845.1 115.5 846.9 118.1 849.2 120C851.5 121.9 854.3 122.8 857.7 122.8Z"
            fill="white" />
    </g>
    <defs>
        <clipPath id="clip0_149_2138">
            <rect width="893.6" height="177.9" fill="white" />
        </clipPath>
    </defs>
</svg>
